svgs/thin/robot-astromech.svg

<svg xmlns="http://www.w3.org/2000/svg" viewBox="0 0 512 512"><!--! Font Awesome Pro 6.6.0 by @fontawesome - https://fontawesome.com License - https://fontawesome.com/license (Commercial License) Copyright 2024 Fonticons, Inc. --><path d="M256 0C176.5 0 112 64.5 112 144l0 32-24 0c-30.9 0-56 25.1-56 56l0 190.1L2.2 481.7C.8 484.6 0 487.8 0 491.1C0 502.6 9.4 512 20.9 512l83.1 0c13.3 0 24-10.7 24-24l0-99 50 56.3c1.5 1.7 3.7 2.7 6 2.7l144 0c2.3 0 4.5-1 6-2.7L384 389l0 99c0 13.3 10.7 24 24 24l83.1 0c11.6 0 20.9-9.4 20.9-20.9c0-3.3-.8-6.5-2.2-9.4L480 422.1 480 232c0-30.9-25.1-56-56-56l-24 0 0-32C400 64.5 335.5 0 256 0zM400 192l24 0c22.1 0 40 17.9 40 40l0 192c0 1.2 .3 2.5 .8 3.6l30.6 61.3c.3 .7 .5 1.4 .5 2.2c0 2.7-2.2 4.9-4.9 4.9L408 496c-4.4 0-8-3.6-8-8l0-120 0-176zm-16 0l0 173-59.6 67-136.8 0L128 365l0-173 256 0zm-272 0l0 176 0 120c0 4.4-3.6 8-8 8l-83.1 0c-2.7 0-4.9-2.2-4.9-4.9c0-.8 .2-1.5 .5-2.2l30.6-61.3c.6-1.1 .8-2.3 .8-3.6l0-192c0-22.1 17.9-40 40-40l24 0zm16-48c0-70.7 57.3-128 128-128s128 57.3 128 128l0 32-256 0 0-32zm72-48a24 24 0 1 1 48 0 24 24 0 1 1 -48 0zm64 0a40 40 0 1 0 -80 0 40 40 0 1 0 80 0zm40 32a16 16 0 1 0 0-32 16 16 0 1 0 0 32zM192 248c0 4.4 3.6 8 8 8l112 0c4.4 0 8-3.6 8-8s-3.6-8-8-8l-112 0c-4.4 0-8 3.6-8 8zm0 64c0 4.4 3.6 8 8 8l112 0c4.4 0 8-3.6 8-8s-3.6-8-8-8l-112 0c-4.4 0-8 3.6-8 8z"/></svg>

<svg xmlns="http://www.w3.org/2000/svg" viewBox="0 0 512 512"><!--! Font Awesome Pro 6.5.2 by @fontawesome - https://fontawesome.com License - https://fontawesome.com/license (Commercial License) Copyright 2024 Fonticons, Inc. --><path d="M256 0C176.5 0 112 64.5 112 144v32H88c-30.9 0-56 25.1-56 56V422.1L2.2 481.7C.8 484.6 0 487.8 0 491.1C0 502.6 9.4 512 20.9 512H104c13.3 0 24-10.7 24-24V389l50 56.3c1.5 1.7 3.7 2.7 6 2.7H328c2.3 0 4.5-1 6-2.7L384 389v99c0 13.3 10.7 24 24 24h83.1c11.6 0 20.9-9.4 20.9-20.9c0-3.3-.8-6.5-2.2-9.4L480 422.1V232c0-30.9-25.1-56-56-56H400V144C400 64.5 335.5 0 256 0zM400 192h24c22.1 0 40 17.9 40 40V424c0 1.2 .3 2.5 .8 3.6l30.6 61.3c.3 .7 .5 1.4 .5 2.2c0 2.7-2.2 4.9-4.9 4.9H408c-4.4 0-8-3.6-8-8V368 192zm-16 0V365l-59.6 67H187.6L128 365V192H384zm-272 0V368 488c0 4.4-3.6 8-8 8H20.9c-2.7 0-4.9-2.2-4.9-4.9c0-.8 .2-1.5 .5-2.2l30.6-61.3c.6-1.1 .8-2.3 .8-3.6V232c0-22.1 17.9-40 40-40h24zm16-48c0-70.7 57.3-128 128-128s128 57.3 128 128v32H128V144zm72-48a24 24 0 1 1 48 0 24 24 0 1 1 -48 0zm64 0a40 40 0 1 0 -80 0 40 40 0 1 0 80 0zm40 32a16 16 0 1 0 0-32 16 16 0 1 0 0 32zM192 248c0 4.4 3.6 8 8 8H312c4.4 0 8-3.6 8-8s-3.6-8-8-8H200c-4.4 0-8 3.6-8 8zm0 64c0 4.4 3.6 8 8 8H312c4.4 0 8-3.6 8-8s-3.6-8-8-8H200c-4.4 0-8 3.6-8 8z"/></svg>
